!!! OTL: Literature57
!!! Chapter: 5
!!! Section: II
!!! Page: 357
!!! Mode: 
!!! Encoder: ESM
**kern
*staff1
*I"Piano
=1-
*clefG2
*k[f#]
*G:
*M6/8
4b\
8d/
4d/
8d/
=2
4e/
8d/
4g/
8b\
=3
8a\L
8b\
8cc\J
4e/
8f#/
=4
4g/
8a/
4b\
8r
=5
4b\
8d/
4d/
8d/
=6
4e/
8d/
4g/
8b\
=7
8a\L
8b\
8cc\J
4e/
16f#/LL
16f#/JJ
=8
4.g/
4g/
8r
=9
4cc\
8cc\
4cc\
8cc\
=10
!!linebreak:original
4cc\
8b\
4.b\
=11
4b\
8a/
4.a/
=12
4a/
8g/
4g/
8r
=13
4cc\
8cc\
4cc\
8cc\
=14
4cc\
8b\
4b\
8b\
=15
4a/
8a/
8a\L
8b\
8cc#\J
=16
4.dd\
4d/
8r
==
*-
